logos/rome.svg

<?xml version="1.0" encoding="UTF-8"?>
<svg width="512px" height="127px" viewBox="0 0 512 127" version="1.1" xmlns="http://www.w3.org/2000/svg" xmlns:xlink="http://www.w3.org/1999/xlink" preserveAspectRatio="xMidYMid">
    <g>
        <g>
            <path d="M18.7675441,75.028503 L18.7675441,125.047499 L0.0104206242,125.047499 L0.0104206242,75.028503 L18.7675441,75.028503 Z M125.05791,75.028503 L125.05791,125.047499 L106.300787,125.047499 L106.300787,75.028503 L125.05791,75.028503 Z M44.1556581,11.6051109 L49.1089281,21.9354229 C49.5145136,22.7758494 49.542384,23.749369 49.1855437,24.6116226 C48.8287034,25.4738761 48.1210332,26.1429951 47.2401628,26.4510267 C30.6123202,32.3560471 18.7571235,47.6187879 18.7571235,65.5179467 L18.7571235,68.7934962 L-3.55271368e-15,68.7934962 L-3.55271368e-15,65.5179467 C-3.55271368e-15,40.1610946 16.6313161,18.5209318 40.0672999,9.94128455 C41.655245,9.35832644 43.4260415,10.078982 44.1556581,11.6051109 Z M84.9836635,9.89612851 C108.426594,18.5035641 125.05791,40.1541475 125.05791,65.500579 L125.05791,68.7761285 L106.300787,68.7761285 L106.300787,65.500579 C106.300787,47.6014202 94.4594844,32.3421529 77.8177476,26.433659 C76.9368772,26.1256274 76.2292071,25.4565084 75.8723668,24.5942549 C75.5155265,23.7320013 75.5433969,22.7584816 75.9489824,21.9180552 L80.8953053,11.5599548 C81.6249219,10.0338259 83.3957184,9.31317041 84.9836635,9.89612851 Z" fill="#27272A"></path>
            <path d="M62.5341655,29.7717323 C83.2503664,29.7717323 100.048412,45.7673904 100.048412,65.500579 L100.048412,125.047499 L81.291289,125.047499 L81.291289,65.500579 C81.291289,55.6322479 72.8922659,47.6361556 62.5341655,47.6361556 C52.1760651,47.6361556 43.7770421,55.6253008 43.7770421,65.500579 L43.7770421,125.047499 L25.0199186,125.047499 L25.0199186,65.500579 C25.0199186,45.7673904 41.8179647,29.7717323 62.5341655,29.7717323 Z M74.4345183,0.805870706 C75.4723051,0.947193057 76.3803493,1.57527285 76.878705,2.49647583 C77.3770608,3.41767881 77.4058917,4.52139861 76.9563094,5.46736324 L76.0566621,7.35002267 L69.0922117,21.9388965 C68.5096578,23.1423726 67.2590787,23.8759909 65.9243419,23.7972411 C64.8012302,23.7347174 63.6711714,23.7034555 62.5341655,23.7034555 C61.3983175,23.7034555 60.265943,23.7347174 59.1439891,23.7972411 C57.8100216,23.8764596 56.5602096,23.1424866 55.9795929,21.9388965 L49.0116689,7.35002267 L48.1120217,5.46736324 C47.6624394,4.52139861 47.6912703,3.41767881 48.189626,2.49647583 C48.6879817,1.57527285 49.596026,0.947193057 50.6338128,0.805870706 C58.5309999,-0.268623569 66.5373312,-0.268623569 74.4345183,0.805870706 Z" fill="#FFC905"></path>
        </g>
        <path d="M484.579864,59.220353 C485.973912,59.2181005 487.317015,59.2794664 488.609172,59.4045139 C495.287635,60.032067 500.631099,62.2806061 504.639566,66.1501312 C508.856445,70.2234374 511.212664,75.7463682 511.708223,82.7189236 C511.775378,83.6544641 511.808955,84.6212665 511.808955,85.6193307 C511.814755,86.0614345 511.781044,86.5031726 511.708223,86.9392764 C511.679649,87.3389696 511.497993,87.7122352 511.201085,87.9813388 C510.786576,88.2661692 509.653044,88.4085844 507.800488,88.4085844 L507.800488,88.4085844 L468.657151,88.4085844 C468.332953,89.1380281 468.170855,90.4753415 468.170855,92.4205247 C468.170855,100.36104 469.892573,106.641203 473.336011,111.261013 C476.779448,115.880823 481.459466,118.190728 487.376065,118.190728 C490.887001,118.167882 494.350714,117.379597 497.525753,115.880823 C501.101923,114.200331 504.40232,111.986792 507.314193,109.31583 L507.314193,109.31583 L510.71479,113.570918 C505.458164,119.519937 499.276418,123.348937 492.169552,125.05792 C489.205241,125.762217 486.167783,126.11202 483.120977,126.100617 C479.979859,126.117622 476.847452,125.767893 473.787571,125.05792 C472.311401,124.711899 470.860691,124.26508 469.445645,123.720606 C461.526925,120.781874 455.229642,114.617178 452.123094,106.762777 C450.502108,102.793677 449.691615,98.3776482 449.691615,93.5146902 C449.634793,88.7921113 450.502087,84.1040021 452.244668,79.7143103 C453.87648,75.6418279 456.339535,71.9543437 459.476581,68.8872818 C462.657642,65.8077835 466.417946,63.3898546 470.53981,61.7734691 C473.756207,60.5024451 477.1399,59.7044924 480.585292,59.4045139 C481.854292,59.2840978 483.185816,59.2227319 484.579864,59.220353 Z M277.751316,59.2377839 C279.064315,59.2377839 280.356472,59.2968341 281.631262,59.4218816 C285.02661,59.7370915 288.363053,60.5142314 291.548223,61.7317866 C295.74315,63.3074692 299.615752,65.6345617 302.976174,68.5989779 C306.249459,71.4946126 308.901165,75.024312 310.770801,78.974446 C312.701326,83.1053769 313.677197,87.6178921 313.626052,92.1773768 C313.679089,96.8689708 312.704531,101.515311 310.770801,105.790185 C308.923626,109.843634 306.277192,113.482481 302.990068,116.488693 C299.647967,119.523461 295.773517,121.914079 291.562117,123.539982 C289.988921,124.158019 288.374414,124.665237 286.730421,125.05792 C280.848541,126.438059 274.727036,126.438059 268.845156,125.05792 C267.248183,124.679751 265.679079,124.192307 264.148928,123.599032 C259.970458,122.010807 256.134009,119.638671 252.846024,116.610267 C249.588078,113.582271 246.987033,109.917163 245.204233,105.842289 C243.317756,101.532768 242.370477,96.8709705 242.4254,92.1669562 C242.373973,87.5999527 243.322429,83.0770033 245.204233,78.9153958 C247.005222,74.9417449 249.606718,71.3824255 252.846024,68.4600362 C256.15337,65.5019125 259.987682,63.19237 264.148928,61.6518951 C267.285221,60.47776 270.56429,59.7277912 273.899159,59.4218816 C275.163528,59.3003076 276.438318,59.2377839 277.751316,59.2377839 Z M186.612537,31.2618796 C198.387843,31.2595659 207.482732,33.3297965 213.897205,37.4725736 C220.311678,41.6153506 223.518915,47.3814293 223.518915,54.7708096 C223.518407,56.3218622 223.402301,57.8707201 223.17156,59.4045139 C222.551052,63.9470566 220.637532,68.2153994 217.65905,71.7008504 C213.759421,76.2511896 207.547571,79.2951697 199.023501,80.8327907 L199.023501,80.8327907 L227.28076,113.233985 C229.173653,115.464056 231.549367,117.233963 234.227843,118.409561 C236.799717,119.564028 239.585472,120.165202 242.404559,120.17412 L242.404559,120.17412 L242.404559,125.037078 L213.535957,125.037078 L183.316147,88.0091272 C181.287598,85.5730168 179.521882,83.9288739 178.018996,83.0766984 C176.51611,82.2245229 175.115115,81.7984352 173.816011,81.7984352 L173.816011,81.7984352 L173.816011,105.710294 C173.767583,108.180524 173.972434,110.649213 174.427354,113.077675 C174.830285,114.985807 175.640778,116.467852 176.858833,117.523808 C178.074573,118.582081 179.840289,119.292999 182.155984,119.656563 C184.471678,120.020127 187.578182,120.201909 191.475495,120.201909 L191.475495,120.201909 L191.475495,125.064867 L143.102958,125.064867 L143.102958,120.201909 C145.288112,120.24655 147.471983,120.063785 149.619322,119.656563 C151.284306,119.283736 152.58341,118.589028 153.516635,117.572438 C154.44986,116.555848 155.078571,115.134012 155.402768,113.306929 C155.765858,110.990996 155.929714,108.648197 155.892537,106.30427 L155.892537,106.30427 L155.892537,50.0328992 C155.929106,47.7340454 155.813067,45.4352989 155.545183,43.1518137 C155.29972,41.4057802 154.771741,40.0256265 153.961248,39.0113524 C153.0728,37.9433609 151.848146,37.2085684 150.487707,36.9272276 C148.505991,36.4916864 146.491209,36.2232811 144.464586,36.1248395 L144.464586,36.1248395 L144.464586,31.2618796 Z M340.907246,59.4149345 L342.366133,69.9883945 L343.095577,69.9883945 C346.506594,66.1952873 349.933822,63.4882407 353.377259,61.8672547 C356.820697,60.2462687 360.811796,59.4357757 365.350556,59.4357757 C370.697494,59.4357757 375.114681,60.3620534 378.602117,62.2146088 C382.005901,64.0020862 384.767152,66.8070515 386.50095,70.2384894 L386.50095,70.2384894 L386.987246,70.2384894 C389.862121,66.8666992 393.427644,64.15169 397.442605,62.2771326 C401.512458,60.3698529 405.956503,59.3944175 410.451018,59.4218816 C415.31166,59.4265129 419.545907,60.0332248 423.153758,61.2420172 C426.76161,62.4508096 429.577494,64.1875803 431.601411,66.4523293 C433.224713,68.3164632 434.420769,70.7479422 435.189579,73.7467662 C435.95839,76.7455903 436.342795,80.9196292 436.342795,86.2688829 L436.342795,86.2688829 L436.342795,104.97043 C436.349742,108.291135 436.451633,110.925238 436.648467,112.872736 C436.845301,114.820235 437.30844,116.319647 438.037883,117.370972 C438.78399,118.446642 439.916184,119.193144 441.198806,119.455097 C443.084165,119.840859 444.997125,120.07664 446.919729,120.160226 L446.919729,120.160226 L446.919729,125.023184 L408.505834,125.023184 L408.505834,120.160226 C410.448182,120.140075 412.383079,119.916549 414.27886,119.493306 C415.57876,119.203868 416.738508,118.473656 417.561357,117.426549 C418.332483,116.414591 418.818779,115.015911 419.020244,113.230511 C419.25207,110.806218 419.354106,108.371263 419.325916,105.936074 L419.325916,105.936074 L419.325916,90.0133605 C419.371385,86.4333636 419.127443,82.8555474 418.596472,79.3148531 C418.110176,76.399394 417.340208,74.0489643 416.286567,72.2635641 C415.330515,70.5755514 413.860445,69.2369113 412.090529,68.4426685 C410.349127,67.6715423 408.222162,67.2859793 405.709634,67.2859793 C402.875224,67.2998734 400.545635,67.9945817 398.720868,69.3701041 C396.841522,70.8127973 395.28747,72.635524 394.160109,74.7193578 C392.052827,78.5309906 390.999186,83.2723746 390.999186,88.9435098 L390.999186,88.9435098 L390.999186,104.963483 C390.999186,108.284188 391.080235,110.91829 391.242334,112.865789 C391.404432,114.813288 391.850204,116.3127 392.579647,117.364025 C393.342948,118.45073 394.498861,119.198088 395.803094,119.44815 C397.749706,119.843036 399.723923,120.08691 401.708114,120.177594 L401.708114,120.177594 L401.708114,125.040552 L363.172646,125.040552 L363.172646,120.177594 C365.112798,120.0823 367.042793,119.838438 368.945672,119.44815 C370.233192,119.202375 371.394313,118.514303 372.228168,117.502967 C372.999294,116.532691 373.48559,115.13517 373.687056,113.310403 C373.917589,110.865119 374.01962,108.409421 373.992727,105.953442 L373.992727,105.953442 L373.992727,90.0307282 C374.038196,86.4507313 373.794254,82.8729151 373.263284,79.3322208 C372.774672,76.4167617 371.983863,74.066332 370.890855,72.2809318 C369.889454,70.5860922 368.380129,69.2493316 366.576716,68.4600362 C364.795948,67.6889101 362.567092,67.303347 359.890149,67.303347 C357.213207,67.303347 355.005192,67.9517414 353.266106,69.2485301 C351.446401,70.6383317 349.969393,72.4266641 348.948494,74.4762099 C347.8357,76.5832371 347.017563,78.8331151 346.517015,81.1627771 C345.945804,83.716791 345.660378,86.326405 345.665997,88.9435098 L345.665997,88.9435098 L345.666748,105.558809 C345.675253,108.697218 345.756052,111.184981 345.909145,113.022099 C346.071244,114.967282 346.517015,116.44701 347.246459,117.461285 C348.01365,118.499786 349.140864,119.214514 350.407381,119.465518 C352.289803,119.859088 354.200432,120.102998 356.121357,120.194962 L356.121357,120.194962 L356.121357,125.05792 L317.690095,125.05792 L317.690095,120.194962 C319.650615,120.096171 321.60113,119.852356 323.525645,119.465518 C324.972953,119.139005 326.067119,118.490611 326.808141,117.520335 C327.549163,116.550059 328.035459,115.152537 328.267028,113.32777 C328.543326,110.885571 328.665142,108.428362 328.63175,105.97081 L328.63175,105.97081 L328.63175,90.8991136 C328.629435,86.2793035 328.568069,82.4294618 328.447653,79.3495885 C328.327237,76.2697151 328.10493,74.1624333 327.780733,73.0277432 C327.604881,72.1558731 327.296811,71.3160003 326.867191,70.537214 C326.45847,69.8916824 325.865603,69.383511 325.165156,69.0783266 C324.220976,68.6694636 323.214573,68.4228537 322.188331,68.3488829 C320.972592,68.2261511 319.39213,68.1647852 317.446947,68.1647852 L317.446947,68.1647852 L317.446947,64.031271 L340.907246,59.4149345 Z M277.76521,66.2890729 C275.4024,66.2695559 273.08296,66.9238188 271.078643,68.1752058 C268.971528,69.5146388 267.203545,71.3242352 265.913487,73.4619358 C264.385599,75.9964208 263.277156,78.7610758 262.630991,81.6490729 C261.829429,85.137852 261.442348,88.7090294 261.477775,92.2885301 C261.43614,95.9670012 261.823153,99.6378009 262.630991,103.226712 C263.26697,106.142966 264.37578,108.935526 265.913487,111.49374 C267.192201,113.621634 268.938307,115.430694 271.019593,116.783944 C273.038254,118.052512 275.381304,118.708856 277.76521,118.67355 C280.185204,118.699861 282.564168,118.047662 284.632402,116.790891 C286.788853,115.444785 288.600518,113.612897 289.922605,111.441637 C291.492151,108.86088 292.641197,106.046889 293.326676,103.105138 C294.169925,99.5682858 294.578192,95.9417077 294.542415,92.3058978 C294.580407,88.7433202 294.171981,85.1900135 293.326676,81.7289643 C292.626669,78.8333828 291.4781,76.0650972 289.922605,73.5244596 C288.600518,71.3531998 286.788853,69.5213119 284.632402,68.1752058 C282.564454,66.9173893 280.185516,66.2639936 277.76521,66.2890729 Z M484.413616,66.2702764 L484.100516,66.2717052 C480.620027,66.2740209 477.52047,67.7132248 474.801845,70.5893171 C472.08322,73.4654094 470.320977,77.1323112 469.515115,81.5900227 L469.515115,81.5900227 L487.139864,81.5900227 C490.381836,81.587707 492.465961,81.4047671 493.392239,81.0412031 C494.323148,80.6764813 494.792076,79.8080959 494.781825,78.4291 C494.77934,74.8652466 493.766223,71.9474718 491.742307,69.6757757 C489.829054,67.459727 487.027599,66.2118061 484.100516,66.2717052 Z M186.612537,38.0700227 L176.02171,38.0700227 C174.560507,38.0700227 173.829905,38.7647309 173.829905,40.1541475 L173.829905,40.1541475 L173.829905,74.5039982 L181.749579,74.5039982 C189.372845,74.5039982 195.075242,73.0161647 198.856771,70.0404976 C201.846332,67.6946993 203.651416,64.14474 204.272022,59.3906197 C204.443572,58.0556105 204.527117,56.7107622 204.522328,55.3647852 C204.519801,50.1660516 202.935866,45.9839078 199.770312,42.8183537 C196.604758,39.6527997 192.218833,38.0700227 186.612537,38.0700227 L186.612537,38.0700227 Z" fill="#27272A"></path>
    </g>
</svg>

<svg preserveAspectRatio="xMidYMid" viewBox="0 0 512 127" xmlns="http://www.w3.org/2000/svg">
  <path fill="#27272A" d="M18.768 75.029v50.018H.01V75.03h18.758Zm106.29 0v50.018H106.3V75.03h18.757ZM44.156 11.605l4.953 10.33a3.276 3.276 0 0 1-1.869 4.516c-16.628 5.905-28.483 21.168-28.483 39.067v3.275H0v-3.275C0 40.16 16.631 18.52 40.067 9.94a3.279 3.279 0 0 1 4.089 1.664Zm40.828-1.709c23.443 8.608 40.074 30.258 40.074 55.605v3.275H106.3v-3.275c0-17.9-11.842-33.159-28.483-39.067a3.276 3.276 0 0 1-1.869-4.516l4.946-10.358a3.279 3.279 0 0 1 4.089-1.664Z"/>
  <path fill="#FFC905" d="M62.534 29.772c20.716 0 37.514 15.995 37.514 35.729v59.546H81.291V65.501c0-9.869-8.399-17.865-18.757-17.865-10.358 0-18.757 7.99-18.757 17.865v59.546H25.02V65.501c0-19.734 16.798-35.73 37.514-35.73ZM74.434.806a3.282 3.282 0 0 1 2.522 4.661l-.9 1.883-6.964 14.589a3.303 3.303 0 0 1-3.168 1.858 60.981 60.981 0 0 0-6.78 0 3.296 3.296 0 0 1-3.164-1.858L49.012 7.35l-.9-1.883A3.282 3.282 0 0 1 50.634.806a88.27 88.27 0 0 1 23.8 0Z"/>
  <path fill="#27272A" d="M484.58 59.22c1.394-.002 2.737.06 4.03.185 6.678.627 12.021 2.876 16.03 6.745 4.216 4.073 6.573 9.596 7.068 16.569.067.935.101 1.902.101 2.9.006.442-.028.884-.1 1.32-.03.4-.211.773-.508 1.042-.414.285-1.548.428-3.4.428h-39.144c-.324.729-.486 2.066-.486 4.012 0 7.94 1.722 14.22 5.165 18.84 3.443 4.62 8.123 6.93 14.04 6.93a24.145 24.145 0 0 0 10.15-2.31 39.05 39.05 0 0 0 9.788-6.565l3.4 4.255c-5.256 5.949-11.438 9.778-18.544 11.487a38.52 38.52 0 0 1-9.049 1.043 40.328 40.328 0 0 1-9.333-1.043 33.172 33.172 0 0 1-4.342-1.337 29.765 29.765 0 0 1-17.323-16.958c-1.62-3.97-2.431-8.385-2.431-13.248a36.205 36.205 0 0 1 2.553-13.8 31.557 31.557 0 0 1 7.232-10.828 33.478 33.478 0 0 1 11.063-7.114 35.777 35.777 0 0 1 10.045-2.368c1.27-.12 2.6-.182 3.995-.185Zm-206.829.018c1.313 0 2.605.059 3.88.184a37.476 37.476 0 0 1 9.917 2.31 36.875 36.875 0 0 1 11.428 6.867 32.304 32.304 0 0 1 7.795 10.375 30.38 30.38 0 0 1 2.855 13.203 32.148 32.148 0 0 1-2.855 13.613 33.096 33.096 0 0 1-7.78 10.699 36.618 36.618 0 0 1-11.429 7.051 36.24 36.24 0 0 1-4.832 1.518 39.147 39.147 0 0 1-17.885 0 35.83 35.83 0 0 1-4.696-1.459 35.083 35.083 0 0 1-11.303-6.989 32.467 32.467 0 0 1-7.642-10.768 33.138 33.138 0 0 1-2.779-13.675 31.307 31.307 0 0 1 2.78-13.252 31.713 31.713 0 0 1 7.641-10.455 35.378 35.378 0 0 1 11.303-6.808 37.608 37.608 0 0 1 9.75-2.23 40.08 40.08 0 0 1 3.852-.184Zm-91.138-27.976c11.775-.002 20.87 2.068 27.284 6.21 6.415 4.143 9.622 9.91 9.622 17.299 0 1.55-.117 3.1-.347 4.634a23.908 23.908 0 0 1-5.513 12.296c-3.9 4.55-10.111 7.594-18.635 9.132l28.257 32.401c1.893 2.23 4.268 4 6.947 5.176a20.122 20.122 0 0 0 8.177 1.764v4.863h-28.869l-30.22-37.028c-2.028-2.436-3.794-4.08-5.297-4.932-1.503-.852-2.904-1.279-4.203-1.279v23.912c-.048 2.47.156 4.94.611 7.368.403 1.908 1.214 3.39 2.432 4.446 1.216 1.058 2.981 1.769 5.297 2.133 2.316.363 5.422.545 9.32.545v4.863h-48.373v-4.863a31.519 31.519 0 0 0 6.516-.545c1.665-.373 2.964-1.068 3.898-2.085.933-1.016 1.562-2.438 1.886-4.265.363-2.316.527-4.659.49-7.003V50.033a51.964 51.964 0 0 0-.348-6.881c-.245-1.746-.773-3.126-1.584-4.14a6.134 6.134 0 0 0-3.473-2.085 36.253 36.253 0 0 0-6.023-.802v-4.863Zm154.294 28.153 1.46 10.573h.729c3.41-3.793 6.838-6.5 10.281-8.12 3.444-1.622 7.435-2.432 11.974-2.432 5.346 0 9.764.926 13.251 2.779a18.472 18.472 0 0 1 7.899 8.023h.486a30.942 30.942 0 0 1 10.456-7.96 30.22 30.22 0 0 1 13.008-2.856c4.86.005 9.095.611 12.703 1.82 3.608 1.209 6.423 2.946 8.447 5.21 1.624 1.864 2.82 4.296 3.589 7.295.768 2.999 1.153 7.173 1.153 12.522v18.701c.007 3.321.109 5.955.305 7.903.197 1.947.66 3.447 1.39 4.498a5.085 5.085 0 0 0 3.16 2.084c1.886.386 3.8.622 5.722.705v4.863h-38.414v-4.863a27.82 27.82 0 0 0 5.773-.667 5.77 5.77 0 0 0 3.282-2.066c.771-1.012 1.258-2.411 1.46-4.196a68.32 68.32 0 0 0 .305-7.295V90.013a66.449 66.449 0 0 0-.73-10.698c-.486-2.916-1.256-5.266-2.31-7.051a9.108 9.108 0 0 0-4.195-3.821c-1.742-.771-3.869-1.157-6.381-1.157-2.835.014-5.164.709-6.99 2.084a16.854 16.854 0 0 0-4.56 5.35c-2.107 3.811-3.16 8.552-3.16 14.224v16.02c0 3.32.08 5.954.242 7.902.162 1.947.608 3.447 1.338 4.498a5.117 5.117 0 0 0 3.223 2.084c1.947.395 3.92.639 5.905.73v4.863h-38.535v-4.863c1.94-.096 3.87-.34 5.773-.73a5.62 5.62 0 0 0 3.282-1.945c.771-.97 1.258-2.368 1.46-4.193.23-2.445.332-4.9.305-7.357V90.031a66.449 66.449 0 0 0-.73-10.699c-.488-2.915-1.28-5.266-2.372-7.051a9.379 9.379 0 0 0-4.314-3.821c-1.781-.771-4.01-1.157-6.687-1.157-2.677 0-4.885.649-6.624 1.946a14.985 14.985 0 0 0-4.318 5.227 26.024 26.024 0 0 0-2.431 6.687 35.302 35.302 0 0 0-.851 7.78v16.616c.01 3.138.09 5.626.243 7.463.162 1.945.608 3.425 1.337 4.44a5.183 5.183 0 0 0 3.161 2.004c1.883.393 3.793.637 5.714.729v4.863h-38.43v-4.863a39.769 39.769 0 0 0 5.835-.73c1.447-.326 2.541-.974 3.282-1.945.741-.97 1.227-2.367 1.459-4.192.276-2.442.398-4.9.365-7.357V90.899c-.003-4.62-.064-8.47-.184-11.55s-.343-5.187-.667-6.321a8.729 8.729 0 0 0-.914-2.49 3.82 3.82 0 0 0-1.702-1.46 9.146 9.146 0 0 0-2.977-.73c-1.215-.122-2.796-.183-4.741-.183V64.03l23.46-4.616Zm-63.142 6.874a12.432 12.432 0 0 0-6.686 1.886 16.155 16.155 0 0 0-5.166 5.287 27.48 27.48 0 0 0-3.282 8.187 45.503 45.503 0 0 0-1.153 10.64 47.369 47.369 0 0 0 1.153 10.938 27.365 27.365 0 0 0 3.282 8.267 16.364 16.364 0 0 0 5.107 5.29 12.335 12.335 0 0 0 6.745 1.89c2.42.026 4.8-.626 6.867-1.883a16.298 16.298 0 0 0 5.29-5.35 28.483 28.483 0 0 0 3.405-8.336 44.67 44.67 0 0 0 1.215-10.8 42.662 42.662 0 0 0-1.215-10.576 28.57 28.57 0 0 0-3.404-8.205 16.298 16.298 0 0 0-5.29-5.349 12.956 12.956 0 0 0-6.868-1.886Zm206.649-.019-.313.002c-3.481.002-6.58 1.441-9.3 4.317-2.718 2.876-4.48 6.543-5.286 11.001h17.625c3.242-.002 5.326-.185 6.252-.549.931-.365 1.4-1.233 1.39-2.612-.003-3.564-1.016-6.482-3.04-8.753a9.83 9.83 0 0 0-7.641-3.404Zm-297.801-28.2h-10.591c-1.461 0-2.192.695-2.192 2.084v34.35h7.92c7.623 0 13.325-1.488 17.107-4.464 2.99-2.345 4.794-5.895 5.415-10.65.172-1.334.255-2.68.25-4.025-.002-5.199-1.586-9.381-4.752-12.547-3.165-3.165-7.551-4.748-13.157-4.748Z"/>
</svg>
